X:1
T:Involutions
A:Auckland
C:Mark Fitzsimons
M:6/8
O:New Zealand
R:Jig
%%Copyright: Mark Fitzsimons
K:A min
A|:\
BcG ABc | dGc BFG | Aee Add | Acc ^GAB |\
cGA Bcd | GcB FGA | ^Gee dcB| A^GB A2 ::
a2e ^cBA|a2e B^cA | a2e ^cBA|^GAB AB^c| \
d2A ^FED|d2A E^FD |